contributed-vectors/dead_trigger_2.svg

<?xml version="1.0" encoding="UTF-8" standalone="no"?>
<svg
   width="192"
   height="192"
   viewBox="0 0 192 192"
   fill="none"
   version="1.1"
   id="svg32"
   sodipodi:docname="dead_trigger_2.svg"
   xml:space="preserve"
   inkscape:version="1.2 (dc2aedaf03, 2022-05-15)"
   inkscape:export-filename="dead_trigger_2.png"
   inkscape:export-xdpi="96"
   inkscape:export-ydpi="96"
   xmlns:inkscape="http://www.inkscape.org/namespaces/inkscape"
   xmlns:sodipodi="http://sodipodi.sourceforge.net/DTD/sodipodi-0.dtd"
   xmlns="http://www.w3.org/2000/svg"
   xmlns:svg="http://www.w3.org/2000/svg"><defs
     id="defs36" /><sodipodi:namedview
     id="namedview34"
     pagecolor="#505050"
     bordercolor="#eeeeee"
     borderopacity="1"
     inkscape:showpageshadow="0"
     inkscape:pageopacity="0"
     inkscape:pagecheckerboard="0"
     inkscape:deskcolor="#505050"
     showgrid="false"
     inkscape:zoom="2.4583333"
     inkscape:cx="7.3220339"
     inkscape:cy="96.40678"
     inkscape:window-width="1884"
     inkscape:window-height="1052"
     inkscape:window-x="36"
     inkscape:window-y="0"
     inkscape:window-maximized="1"
     inkscape:current-layer="svg32" /><path
     d="M59.1957 115.678L58.1099 124.793L52.0824 134.31L47.0412 140.29H48.546L46.055 143.827L34 162.861H49.5491L48.546 163.865L61.0856 162.861H82.1521L74.6284 154.491H67.6062L61.0856 152.83L62.5903 154.491H53.2238L62.5903 137.281L66.152 141.283L70.0669 121.204L72.4589 123.929L70.0669 112.269H77.1363L52.057 99.1602L40.737 111.665V116.75L45.0802 124.793V117.286L53.2238 113.533L59.1957 115.678Z"
     fill="#E85E5C"
     id="path2"
     style="fill:#fe827c;fill-opacity:1" /><path
     d="M124.5 126C130.5 128.5 185.5 83.5 151 45.5013C140.917 34.3959 124.3 29.4002 95.5001 41.0002C66.7001 52.6002 70.5001 79.1668 76.0001 91.0002C92.0001 96.6002 94.3334 110.667 93.5001 117C117.1 108.2 122 119.833 124.5 126Z"
     fill="#ECECEC"
     id="path4" /><path
     d="M131.012 123.642C129.168 136.548 122.561 145.459 119.949 149.454C126.403 153.141 126.403 165.127 108.887 166.509C94.8743 167.616 86.7618 158.672 83.0742 154.064H86.3008L77.543 141.617L80.3086 143.461L73.3946 129.633L80.3086 137.469L76.1602 118.109C80.7695 121.336 86.3008 123.734 86.3008 111.196C86.3008 98.6582 77.082 100.441 72.4727 102.899L57.7227 95.0634H65.0977L42.9727 84.0001H57.7227L49.4258 77.086L59.1055 79.3907L55.418 71.5548H60.9493L52.6524 64.6407L57.7227 63.2579L34.2148 55.8829L59.1055 50.3524L42.9727 48.5079L83.0744 36.9844H65.0977L71.0899 34.2188H60.9493L98.2852 27.7656L93.6758 25C116.17 25.7375 132.005 32.7344 136 35.5L134.5 26L154 49C112.516 23.1875 82.1525 53.118 80.7696 73.3993C79.3868 93.6806 97.8244 84.9227 101.051 95.0634C103.632 103.176 98.7462 107.048 95.9806 107.97V114.423L103.124 109.958C103.275 109.864 103.396 109.727 103.471 109.566L106.334 103.431C106.485 103.107 106.811 102.899 107.169 102.899H108.887C109.396 102.899 109.809 103.312 109.809 103.821V108.892C109.809 109.401 110.221 109.813 110.731 109.813H112.113C112.623 109.813 113.035 109.401 113.035 108.892V105.37C113.035 104.801 113.547 104.367 114.109 104.461L115.031 104.615C115.475 104.689 115.801 105.073 115.801 105.524V108.892C115.801 109.401 116.214 109.813 116.723 109.813H117.645C118.154 109.813 118.567 109.401 118.567 108.892V105.37C118.567 104.801 119.078 104.367 119.64 104.461L120.562 104.615C121.006 104.689 121.332 105.073 121.332 105.524V109.352C121.332 109.862 121.745 110.274 122.254 110.274H122.472C122.887 110.274 123.252 109.996 123.361 109.595L124.34 106.008C124.464 105.551 124.914 105.263 125.38 105.341L126.292 105.493C126.84 105.584 127.183 106.135 127.024 106.667L126.199 109.418C126.055 109.895 126.317 110.4 126.79 110.557L128.039 110.974C128.434 111.105 128.867 110.956 129.098 110.61L130.985 107.779C131.258 107.37 131.805 107.247 132.227 107.5L132.987 107.956C133.424 108.218 133.565 108.784 133.303 109.221L131.382 112.423C131.165 112.785 131.222 113.25 131.521 113.549L132.471 114.499C132.898 114.926 133.615 114.834 133.919 114.312L136.108 110.56C136.353 110.14 136.881 109.983 137.316 110.2L138.441 110.762C138.913 110.998 139.091 111.581 138.831 112.041L133.317 121.798L131.012 123.642Z"
     fill="#E85E5C"
     id="path6"
     style="fill:#fe827c;fill-opacity:1" /><path
     d="M101.973 111.656C104.185 103.544 101.051 93.2188 99.668 92.7578L97.3633 93.6797L98.2852 113.961L101.973 111.656Z"
     fill="#E85E5C"
     id="path8"
     style="fill:#fe827c;fill-opacity:1" /><path
     d="M125.941 119.953C125.02 126.867 121.332 138.391 113.496 146.227C119.027 143.461 126.402 132.398 125.941 119.953Z"
     fill="#ECECEC"
     id="path10" /><path
     d="M127.52 95.6559L129.218 94.8072C129.995 94.4184 130.939 94.6257 131.482 95.3045L133.685 98.0581C134.035 98.4954 134.564 98.75 135.124 98.75H135.627C136.807 98.75 137.683 97.6578 137.427 96.5063L134.948 85.3503C134.636 83.948 132.912 83.425 131.874 84.4179L124.665 91.3132C124.059 91.8927 123.921 92.808 124.328 93.541L125.084 94.9022C125.563 95.7651 126.637 96.0973 127.52 95.6559Z"
     fill="#E85E5C"
     id="path12"
     style="fill:#fe827c;fill-opacity:1" /><path
     d="M137.926 77.3298V82.0555C137.926 82.1214 137.934 82.1905 137.948 82.2548C141.541 98.5743 151.722 93.838 156.814 89.0638C157.1 88.7953 157.169 88.3647 156.99 88.0148C151.396 77.0412 142.848 75.6892 138.612 76.469C138.202 76.5445 137.926 76.913 137.926 77.3298Z"
     fill="#E85E5C"
     id="path14"
     style="fill:#fe827c;fill-opacity:1" /><path
     d="M122.715 79.8505C126.304 77.9179 128.567 77.7595 129.735 78.0599C130.228 78.1867 130.863 78.1791 131.083 77.7201C131.983 75.848 130.57 73.2243 129.629 72.0137C115.687 57.3568 103.796 59.9992 99.1623 63.3941C98.8989 63.5871 98.7787 63.9284 98.8324 64.2505C102.651 87.1614 116.768 83.0524 122.715 79.8505Z"
     fill="#E85E5C"
     id="path16"
     style="fill:#fe827c;fill-opacity:1" /><path
     d="M117.645 159.133C120.791 154.588 119.215 151.342 117.864 150.1C117.729 149.976 117.543 149.935 117.362 149.967C117.014 150.028 116.764 150.348 116.789 150.701C116.899 152.214 116.803 154.841 115.994 157.784C115.628 159.117 116.858 160.27 117.645 159.133Z"
     fill="#ECECEC"
     id="path18" /><path
     d="M95.1318 145.206L93.9448 148.293C93.7723 148.741 93.7769 149.242 93.9889 149.673C94.3394 150.386 94.7515 151.08 95.2155 151.751C95.7736 152.557 96.9067 152.68 97.516 151.911C98.7347 150.374 99.4851 148.331 99.8697 146.808C100.059 146.058 99.6747 145.303 99.0045 144.916C98.6402 144.705 98.291 144.497 97.9587 144.294C96.9353 143.666 95.5627 144.086 95.1318 145.206Z"
     fill="#ECECEC"
     id="path20" /><path
     d="M99.1485 155.139C99.0228 152.149 100.095 149.475 101.134 147.733C101.58 146.986 102.532 146.775 103.331 147.118C103.918 147.371 104.485 147.611 105.057 147.906C105.72 148.25 106.033 149.01 105.898 149.745C105.475 152.039 104.717 155.358 101.916 156.897C101.394 157.184 100.759 157.089 100.282 156.732C100.126 156.615 99.9667 156.494 99.8146 156.378C99.4236 156.079 99.1692 155.631 99.1485 155.139Z"
     fill="#ECECEC"
     id="path22" /><path
     d="M105.649 159.935C105.968 160.068 106.287 160.194 106.605 160.311C107.471 160.63 108.422 160.185 108.805 159.345C109.738 157.303 110.856 154.58 110.795 150.917C110.783 150.178 110.241 149.574 109.526 149.388C108.725 149.18 107.869 149.541 107.505 150.286L105.74 153.899C105.687 154.008 105.645 154.121 105.614 154.238L104.661 157.852C104.438 158.7 104.84 159.596 105.649 159.935Z"
     fill="#ECECEC"
     id="path24" /><path
     d="M112.446 151.406C112.098 154.407 111.324 156.914 110.584 158.692C110.083 159.896 110.743 161.416 112.047 161.444C112.281 161.449 112.512 161.447 112.738 161.437C113.481 161.407 114.066 160.837 114.213 160.109C114.91 156.656 115.205 153.476 115.301 151.512C115.338 150.769 114.744 150.176 114.001 150.132C113.235 150.087 112.534 150.644 112.446 151.406Z"
     fill="#ECECEC"
     id="path26" /><path
     d="M44.3555 41.5938L55.418 38.3672L64.6368 39.2891L44.3555 41.5938Z"
     fill="#E85E5C"
     id="path28"
     style="fill:#fe827c;fill-opacity:1" /><path
     d="M153.598 57.7266C151.754 51.8266 146.991 48.2005 144.84 47.125L148.066 53.5781L153.598 57.7266Z"
     fill="#E85E5C"
     id="path30"
     style="fill:#fe827c;fill-opacity:1" /><path
     d="m 66.405575,-72.055703 -1.0858,9.115 -6.0275,9.517 -5.0412,5.98 h 1.5048 l -2.491,3.537 -12.055,19.034 h 15.5491 l -1.0031,1.004 12.5396,-1.004 h 21.0665 l -7.5237,-8.37 h -7.0222 l -6.5206,-1.661 1.5047,1.661 h -9.3665 l 9.3665,-17.21 3.5617,4.002 3.9149,-20.079 2.392,2.725 -2.392,-11.66 h 7.0694 l -25.0793,-13.1088 -11.32,12.5048 v 5.085 l 4.3432,8.043 v -7.507 l 8.1436,-3.753 z"
     fill="#e85e5c"
     id="path2-3" /><path
     d="m 131.70987,-61.733703 c 6,2.5 61,-42.499997 26.5,-80.498697 -10.083,-11.1054 -26.7,-16.1011 -55.4999,-4.5011 -28.799995,11.6 -24.999995,38.1666 -19.499995,49.999997 16,5.6 18.333295,19.6668 17.499995,25.9998 23.5999,-8.8 28.4999,2.833 30.9999,9 z"
     fill="#ececec"
     id="path4-6" /><path
     d="m 138.22187,-64.091703 c -1.844,12.906 -8.451,21.817 -11.063,25.812 6.454,3.687 6.454,15.673 -11.062,17.055 -14.0127,1.107 -22.125195,-7.837 -25.812795,-12.445 h 3.2266 l -8.7578,-12.447 2.7656,1.844 -6.914,-13.828 6.914,7.836 -4.1484,-19.36 c 4.6093,3.227 10.1406,5.625 10.1406,-6.913 0,-12.5378 -9.2188,-10.755 -13.8281,-8.297 l -14.75,-7.8356 h 7.375 l -22.125,-11.063297 h 14.75 l -8.2969,-6.9141 9.6797,2.3047 -3.6875,-7.8359 h 5.5313 l -8.2969,-6.9141 5.0703,-1.3828 -23.5079,-7.375 24.8907,-5.5305 -16.1328,-1.8445 40.1017,-11.5235 h -17.9767 l 5.9922,-2.7656 h -10.1406 l 37.335895,-6.4532 -4.6094,-2.7656 c 22.4942,0.7375 38.3292,7.7344 42.3242,10.5 l -1.5,-9.5 19.5,23 c -41.484,-25.8125 -71.847495,4.118 -73.230395,24.3993 -1.3828,20.281297 17.054795,11.5234 20.281395,21.664097 2.581,8.1126 -2.3048,11.9846 -5.0704,12.9066 v 6.453 l 7.1434,-4.465 c 0.151,-0.094 0.272,-0.231 0.347,-0.392 l 2.863,-6.135 c 0.151,-0.324 0.477,-0.532 0.835,-0.532 h 1.718 c 0.509,0 0.922,0.413 0.922,0.922 v 5.071 c 0,0.509 0.412,0.921 0.922,0.921 h 1.382 c 0.51,0 0.922,-0.412 0.922,-0.921 v -3.522 c 0,-0.569 0.512,-1.003 1.074,-0.909 l 0.922,0.154 c 0.444,0.074 0.77,0.458 0.77,0.909 v 3.368 c 0,0.509 0.413,0.921 0.922,0.921 h 0.922 c 0.509,0 0.922,-0.412 0.922,-0.921 v -3.522 c 0,-0.569 0.511,-1.003 1.073,-0.909 l 0.922,0.154 c 0.444,0.074 0.77,0.458 0.77,0.909 v 3.828 c 0,0.51 0.413,0.922 0.922,0.922 h 0.218 c 0.415,0 0.78,-0.278 0.889,-0.679 l 0.979,-3.587 c 0.124,-0.457 0.574,-0.745 1.04,-0.667 l 0.912,0.152 c 0.548,0.091 0.891,0.642 0.732,1.174 l -0.825,2.751 c -0.144,0.477 0.118,0.982 0.591,1.139 l 1.249,0.417 c 0.395,0.131 0.828,-0.018 1.059,-0.364 l 1.887,-2.831 c 0.273,-0.409 0.82,-0.532 1.242,-0.279 l 0.76,0.456 c 0.437,0.262 0.578,0.828 0.316,1.265 l -1.921,3.202 c -0.217,0.362 -0.16,0.827 0.139,1.126 l 0.95,0.95 c 0.427,0.427 1.144,0.335 1.448,-0.187 l 2.189,-3.752 c 0.245,-0.42 0.773,-0.577 1.208,-0.36 l 1.125,0.562 c 0.472,0.236 0.65,0.819 0.39,1.279 l -5.514,9.757 z"
     fill="#e85e5c"
     id="path6-7" /><path
     d="m 109.18287,-76.077703 c 2.212,-8.112 -0.922,-18.4372 -2.305,-18.8982 l -2.3047,0.9219 0.9219,20.2813 z"
     fill="#e85e5c"
     id="path8-5" /><path
     d="m 133.15087,-67.780703 c -0.921,6.914 -4.609,18.438 -12.445,26.274 5.531,-2.766 12.906,-13.829 12.445,-26.274 z"
     fill="#ececec"
     id="path10-3" /><path
     d="m 134.72987,-92.077803 1.698,-0.8487 c 0.777,-0.3888 1.721,-0.1815 2.264,0.4973 l 2.203,2.7536 c 0.35,0.4373 0.879,0.6919 1.439,0.6919 h 0.503 c 1.18,0 2.056,-1.0922 1.8,-2.2437 l -2.479,-11.155997 c -0.312,-1.4023 -2.036,-1.9253 -3.074,-0.9324 l -7.209,6.895297 c -0.606,0.5795 -0.744,1.4948 -0.337,2.2278 l 0.756,1.3612 c 0.479,0.8629 1.553,1.1951 2.436,0.7537 z"
     fill="#e85e5c"
     id="path12-5" /><path
     d="m 145.13587,-110.4039 v 4.7257 c 0,0.0659 0.008,0.135 0.022,0.1993 3.593,16.319497 13.774,11.583197 18.866,6.808997 0.286,-0.2685 0.355,-0.6991 0.176,-1.049 -5.594,-10.973597 -14.142,-12.325597 -18.378,-11.545797 -0.41,0.0755 -0.686,0.444 -0.686,0.8608 z"
     fill="#e85e5c"
     id="path14-6" /><path
     d="m 129.92487,-107.8832 c 3.589,-1.9326 5.852,-2.091 7.02,-1.7906 0.493,0.1268 1.128,0.1192 1.348,-0.3398 0.9,-1.8721 -0.513,-4.4958 -1.454,-5.7064 -13.942,-14.6569 -25.833,-12.0145 -30.4667,-8.6196 -0.2634,0.193 -0.3836,0.5343 -0.3299,0.8564 3.8186,22.9109 17.9356,18.8019 23.8826,15.6 z"
     fill="#e85e5c"
     id="path16-2" /><path
     d="m 124.85487,-28.600703 c 3.146,-4.545 1.57,-7.791 0.219,-9.033 -0.135,-0.124 -0.321,-0.165 -0.502,-0.133 -0.348,0.061 -0.598,0.381 -0.573,0.734 0.11,1.513 0.014,4.14 -0.795,7.083 -0.366,1.333 0.864,2.486 1.651,1.349 z"
     fill="#ececec"
     id="path18-9" /><path
     d="m 102.34167,-42.527703 -1.187,3.087 c -0.1725,0.448 -0.1679,0.949 0.0441,1.38 0.3505,0.713 0.7626,1.407 1.2266,2.078 0.5581,0.806 1.6912,0.929 2.3005,0.16 1.2187,-1.537 1.9691,-3.58 2.3537,-5.103 0.1893,-0.75 -0.195,-1.505 -0.8652,-1.892 -0.3643,-0.211 -0.7135,-0.419 -1.0458,-0.622 -1.0234,-0.628 -2.396,-0.208 -2.8269,0.912 z"
     fill="#ececec"
     id="path20-1" /><path
     d="m 106.35837,-32.594703 c -0.1257,-2.99 0.9465,-5.664 1.9855,-7.406 0.446,-0.747 1.398,-0.958 2.197,-0.615 0.587,0.253 1.154,0.493 1.726,0.788 0.663,0.344 0.976,1.104 0.841,1.839 -0.423,2.294 -1.181,5.613 -3.982,7.152 -0.522,0.287 -1.157,0.192 -1.634,-0.165 -0.156,-0.117 -0.3153,-0.238 -0.4674,-0.354 -0.391,-0.299 -0.6454,-0.747 -0.6661,-1.239 z"
     fill="#ececec"
     id="path22-2" /><path
     d="m 112.85887,-27.798703 c 0.319,0.133 0.638,0.259 0.956,0.376 0.866,0.319 1.817,-0.126 2.2,-0.966 0.933,-2.042 2.051,-4.765 1.99,-8.428 -0.012,-0.739 -0.554,-1.343 -1.269,-1.529 -0.801,-0.208 -1.657,0.153 -2.021,0.898 l -1.765,3.613 c -0.053,0.109 -0.095,0.222 -0.126,0.339 l -0.953,3.614 c -0.223,0.848 0.179,1.744 0.988,2.083 z"
     fill="#ececec"
     id="path24-7" /><path
     d="m 119.65587,-36.327703 c -0.348,3.001 -1.122,5.508 -1.862,7.286 -0.501,1.204 0.159,2.724 1.463,2.752 0.234,0.005 0.465,0.003 0.691,-0.007 0.743,-0.03 1.328,-0.6 1.475,-1.328 0.697,-3.453 0.992,-6.633 1.088,-8.597 0.037,-0.743 -0.557,-1.336 -1.3,-1.38 -0.766,-0.045 -1.467,0.512 -1.555,1.274 z"
     fill="#ececec"
     id="path26-0" /><path
     d="m 51.565375,-146.1399 11.0625,-3.2266 9.2188,0.9219 z"
     fill="#e85e5c"
     id="path28-9" /><path
     d="m 160.80787,-130.0071 c -1.844,-5.9 -6.607,-9.5261 -8.758,-10.6016 l 3.226,6.4531 z"
     fill="#e85e5c"
     id="path30-3" /><style
     type="text/css"
     id="style853">
	.st0{fill:#FFFFFF;}
</style></svg>

<svg xmlns="http://www.w3.org/2000/svg" xml:space="preserve" id="svg32" width="192" height="192" fill="none" version="1.1"><path id="path2" fill="#E85E5C" d="m59.196 115.678-1.086 9.115-6.028 9.517-5.04 5.98h1.504l-2.491 3.537L34 162.861h15.55l-1.004 1.004 12.54-1.004h21.066l-7.524-8.37h-7.022l-6.52-1.661 1.504 1.661h-9.366l9.366-17.21 3.562 4.002 3.915-20.079 2.392 2.725-2.392-11.66h7.07L52.056 99.16l-11.32 12.505v5.085l4.343 8.043v-7.507l8.144-3.753 5.972 2.145Z" style="fill:#fe827c;fill-opacity:1"/><path id="path4" fill="#ECECEC" d="M124.5 126c6 2.5 61-42.5 26.5-80.499-10.083-11.105-26.7-16.1-55.5-4.5-28.8 11.6-25 38.166-19.5 50C92 96.6 94.333 110.666 93.5 117c23.6-8.8 28.5 2.833 31 9Z"/><path id="path6" fill="#E85E5C" d="M131.012 123.642c-1.844 12.906-8.451 21.817-11.063 25.812 6.454 3.687 6.454 15.673-11.062 17.055-14.013 1.107-22.125-7.837-25.813-12.445h3.227l-8.758-12.447 2.766 1.844-6.914-13.828 6.914 7.836-4.149-19.36c4.61 3.227 10.14 5.625 10.14-6.913s-9.218-10.755-13.827-8.297l-14.75-7.836h7.375L42.973 84h14.75l-8.297-6.914 9.68 2.305-3.688-7.836h5.531l-8.297-6.914 5.07-1.383-23.507-7.375 24.89-5.53-16.132-1.845 40.101-11.524H65.098l5.992-2.765H60.95l37.335-6.453L93.675 25c22.495.738 38.33 7.734 42.325 10.5l-1.5-9.5L154 49c-41.484-25.813-71.847 4.118-73.23 24.4-1.383 20.28 17.054 11.523 20.281 21.663 2.581 8.113-2.305 11.985-5.07 12.907v6.453l7.143-4.465a.92.92 0 0 0 .347-.392l2.863-6.135a.922.922 0 0 1 .835-.532h1.718c.509 0 .922.413.922.922v5.071a.92.92 0 0 0 .922.921h1.382a.92.92 0 0 0 .922-.921v-3.522a.922.922 0 0 1 1.074-.909l.922.154c.444.074.77.458.77.909v3.368c0 .509.413.921.922.921h.922a.921.921 0 0 0 .922-.921v-3.522a.921.921 0 0 1 1.073-.909l.922.154c.444.074.77.458.77.909v3.828c0 .51.413.922.922.922h.218c.415 0 .78-.278.889-.679l.979-3.587a.92.92 0 0 1 1.04-.667l.912.152a.922.922 0 0 1 .732 1.174l-.825 2.751a.92.92 0 0 0 .591 1.139l1.249.417a.923.923 0 0 0 1.059-.364l1.887-2.831a.923.923 0 0 1 1.242-.279l.76.456a.922.922 0 0 1 .316 1.265l-1.921 3.202a.923.923 0 0 0 .139 1.126l.95.95a.922.922 0 0 0 1.448-.187l2.189-3.752a.921.921 0 0 1 1.208-.36l1.125.562c.472.236.65.819.39 1.279l-5.514 9.757-2.305 1.844Z" style="fill:#fe827c;fill-opacity:1"/><path id="path8" fill="#E85E5C" d="M101.973 111.656c2.212-8.112-.922-18.437-2.305-18.898l-2.305.922.922 20.281 3.688-2.305Z" style="fill:#fe827c;fill-opacity:1"/><path id="path10" fill="#ECECEC" d="M125.941 119.953c-.921 6.914-4.609 18.438-12.445 26.274 5.531-2.766 12.906-13.829 12.445-26.274Z"/><path id="path12" fill="#E85E5C" d="m127.52 95.656 1.698-.849a1.844 1.844 0 0 1 2.264.498l2.203 2.753c.35.437.879.692 1.439.692h.503a1.844 1.844 0 0 0 1.8-2.244l-2.479-11.156c-.312-1.402-2.036-1.925-3.074-.932l-7.209 6.895a1.844 1.844 0 0 0-.337 2.228l.756 1.361a1.843 1.843 0 0 0 2.436.754Z" style="fill:#fe827c;fill-opacity:1"/><path id="path14" fill="#E85E5C" d="M137.926 77.33v4.725c0 .066.008.135.022.2 3.593 16.32 13.774 11.583 18.866 6.809a.887.887 0 0 0 .176-1.05c-5.594-10.973-14.142-12.325-18.378-11.545-.41.076-.686.444-.686.86Z" style="fill:#fe827c;fill-opacity:1"/><path id="path16" fill="#E85E5C" d="M122.715 79.85c3.589-1.932 5.852-2.09 7.02-1.79.493.127 1.128.12 1.348-.34.9-1.872-.513-4.496-1.454-5.706-13.942-14.657-25.833-12.015-30.467-8.62a.884.884 0 0 0-.33.857c3.819 22.91 17.936 18.801 23.883 15.6Z" style="fill:#fe827c;fill-opacity:1"/><path id="path18" fill="#ECECEC" d="M117.645 159.133c3.146-4.545 1.57-7.791.219-9.033a.583.583 0 0 0-.502-.133.699.699 0 0 0-.573.734c.11 1.513.014 4.14-.795 7.083-.366 1.333.864 2.486 1.651 1.349Z"/><path id="path20" fill="#ECECEC" d="m95.132 145.206-1.187 3.087c-.173.448-.168.949.044 1.38.35.713.762 1.407 1.227 2.078.558.806 1.69.929 2.3.16 1.219-1.537 1.97-3.58 2.354-5.103.189-.75-.195-1.505-.866-1.892a52.031 52.031 0 0 1-1.045-.622c-1.024-.628-2.396-.208-2.827.912Z"/><path id="path22" fill="#ECECEC" d="M99.148 155.139c-.125-2.99.947-5.664 1.986-7.406.446-.747 1.398-.958 2.197-.615.587.253 1.154.493 1.726.788.663.344.976 1.104.841 1.839-.423 2.294-1.181 5.613-3.982 7.152-.522.287-1.157.192-1.634-.165a73.574 73.574 0 0 1-.467-.354 1.658 1.658 0 0 1-.666-1.239Z"/><path id="path24" fill="#ECECEC" d="M105.649 159.935c.319.133.638.259.956.376.866.319 1.817-.126 2.2-.966.933-2.042 2.051-4.765 1.99-8.428-.012-.739-.554-1.343-1.269-1.529-.801-.208-1.657.153-2.021.898l-1.765 3.613a1.867 1.867 0 0 0-.126.339l-.953 3.614c-.223.848.179 1.744.988 2.083Z"/><path id="path26" fill="#ECECEC" d="M112.446 151.406c-.348 3.001-1.122 5.508-1.862 7.286-.501 1.204.159 2.724 1.463 2.752.234.005.465.003.691-.007.743-.03 1.328-.6 1.475-1.328a60.131 60.131 0 0 0 1.088-8.597c.037-.743-.557-1.336-1.3-1.38-.766-.045-1.467.512-1.555 1.274Z"/><path id="path28" fill="#E85E5C" d="m44.355 41.594 11.063-3.227 9.219.922-20.282 2.305Z" style="fill:#fe827c;fill-opacity:1"/><path id="path30" fill="#E85E5C" d="M153.598 57.727c-1.844-5.9-6.607-9.526-8.758-10.602l3.226 6.453 5.532 4.149Z" style="fill:#fe827c;fill-opacity:1"/><path id="path2-3" fill="#e85e5c" d="M66.406-72.056 65.32-62.94l-6.028 9.517-5.04 5.98h1.504l-2.491 3.537L41.21-24.873h15.549l-1.003 1.004 12.54-1.004h21.066l-7.524-8.37h-7.022l-6.52-1.66 1.504 1.66h-9.366l9.366-17.21 3.562 4.002 3.915-20.079 2.392 2.725-2.392-11.66h7.07l-25.08-13.109-11.32 12.505v5.085l4.343 8.043v-7.507l8.144-3.753z"/><path id="path4-6" fill="#ececec" d="M131.71-61.734c6 2.5 61-42.5 26.5-80.498-10.083-11.106-26.7-16.102-55.5-4.502-28.8 11.6-25 38.167-19.5 50 16 5.6 18.333 19.667 17.5 26 23.6-8.8 28.5 2.833 31 9z"/><path id="path6-7" fill="#e85e5c" d="M138.222-64.092c-1.844 12.906-8.451 21.817-11.063 25.812 6.454 3.687 6.454 15.673-11.062 17.055-14.013 1.107-22.125-7.837-25.813-12.445h3.227l-8.758-12.447 2.765 1.844L80.604-58.1l6.914 7.836-4.148-19.36c4.61 3.227 10.14 5.625 10.14-6.913s-9.218-10.755-13.827-8.297l-14.75-7.835h7.375l-22.125-11.064h14.75l-8.297-6.914 9.68 2.305-3.688-7.836h5.531l-8.297-6.914 5.07-1.383-23.507-7.375 24.89-5.53-16.132-1.845 40.101-11.523H72.308l5.992-2.766H68.16l37.335-6.453-4.61-2.766c22.495.738 38.33 7.735 42.325 10.5l-1.5-9.5 19.5 23c-41.484-25.812-71.848 4.118-73.23 24.4-1.383 20.28 17.054 11.523 20.28 21.664 2.582 8.112-2.304 11.984-5.07 12.906v6.453l7.144-4.465a.92.92 0 0 0 .347-.392l2.863-6.135a.922.922 0 0 1 .835-.532h1.718c.509 0 .922.413.922.922v5.071a.92.92 0 0 0 .922.921h1.382a.92.92 0 0 0 .922-.92v-3.523a.922.922 0 0 1 1.074-.909l.922.154c.444.074.77.458.77.91v3.367c0 .51.413.921.922.921h.922a.921.921 0 0 0 .922-.92v-3.523a.921.921 0 0 1 1.073-.909l.922.154c.444.074.77.458.77.91v3.827c0 .51.413.922.922.922h.218c.415 0 .78-.278.889-.679l.979-3.587a.92.92 0 0 1 1.04-.667l.912.152a.922.922 0 0 1 .732 1.174l-.825 2.751a.92.92 0 0 0 .59 1.14l1.25.416a.923.923 0 0 0 1.059-.364l1.887-2.83a.923.923 0 0 1 1.242-.28l.76.456a.922.922 0 0 1 .316 1.265l-1.921 3.202a.923.923 0 0 0 .139 1.126l.95.95a.922.922 0 0 0 1.448-.187l2.189-3.752a.921.921 0 0 1 1.208-.36l1.125.562c.472.236.65.82.39 1.28l-5.514 9.756z"/><path id="path8-5" fill="#e85e5c" d="M109.183-76.078c2.212-8.112-.922-18.437-2.305-18.898l-2.305.922.922 20.281z"/><path id="path10-3" fill="#ececec" d="M133.15-67.78c-.92 6.913-4.608 18.437-12.444 26.273 5.53-2.766 12.906-13.829 12.445-26.274z"/><path id="path12-5" fill="#e85e5c" d="m134.73-92.078 1.698-.849a1.844 1.844 0 0 1 2.264.498l2.203 2.753c.35.438.879.692 1.439.692h.503a1.844 1.844 0 0 0 1.8-2.243l-2.48-11.156c-.311-1.403-2.035-1.926-3.073-.933l-7.21 6.895a1.844 1.844 0 0 0-.336 2.228l.756 1.361a1.843 1.843 0 0 0 2.436.754z"/><path id="path14-6" fill="#e85e5c" d="M145.136-110.404v4.726c0 .066.008.135.022.2 3.593 16.319 13.774 11.582 18.866 6.808a.887.887 0 0 0 .176-1.049c-5.594-10.974-14.142-12.326-18.378-11.546-.41.076-.686.444-.686.861z"/><path id="path16-2" fill="#e85e5c" d="M129.925-107.883c3.589-1.933 5.852-2.091 7.02-1.79.493.126 1.128.118 1.348-.34.9-1.873-.513-4.496-1.454-5.707-13.942-14.657-25.833-12.014-30.467-8.62a.884.884 0 0 0-.33.857c3.819 22.91 17.936 18.802 23.883 15.6z"/><path id="path18-9" fill="#ececec" d="M124.855-28.6c3.146-4.546 1.57-7.792.219-9.034a.583.583 0 0 0-.502-.133.699.699 0 0 0-.573.734c.11 1.513.014 4.14-.795 7.083-.366 1.333.864 2.486 1.65 1.35z"/><path id="path20-1" fill="#ececec" d="m102.342-42.528-1.187 3.087c-.173.448-.168.95.044 1.38.35.713.762 1.407 1.226 2.078.558.806 1.692.93 2.3.16 1.22-1.537 1.97-3.58 2.355-5.103.189-.75-.195-1.505-.866-1.892a52.031 52.031 0 0 1-1.045-.622c-1.024-.628-2.396-.208-2.827.912z"/><path id="path22-2" fill="#ececec" d="M106.358-32.595c-.125-2.99.947-5.664 1.986-7.406.446-.747 1.398-.958 2.197-.615.587.253 1.154.493 1.726.788.663.344.976 1.104.84 1.84-.422 2.293-1.18 5.612-3.981 7.151-.522.287-1.157.192-1.634-.165a73.574 73.574 0 0 1-.468-.354 1.658 1.658 0 0 1-.666-1.239z"/><path id="path24-7" fill="#ececec" d="M112.859-27.799c.319.133.638.26.956.376.866.32 1.817-.126 2.2-.966.933-2.042 2.05-4.765 1.99-8.428-.012-.739-.554-1.343-1.27-1.529-.8-.208-1.656.153-2.02.898l-1.765 3.613a1.867 1.867 0 0 0-.126.34l-.953 3.613c-.223.848.179 1.744.988 2.083z"/><path id="path26-0" fill="#ececec" d="M119.656-36.328c-.348 3.001-1.122 5.508-1.862 7.286-.501 1.204.159 2.724 1.463 2.752.234.005.465.003.69-.007.744-.03 1.329-.6 1.476-1.328a60.131 60.131 0 0 0 1.088-8.597c.037-.743-.557-1.336-1.3-1.38-.766-.045-1.467.512-1.555 1.274z"/><path id="path28-9" fill="#e85e5c" d="m51.565-146.14 11.063-3.227 9.219.922z"/><path id="path30-3" fill="#e85e5c" d="M160.808-130.007c-1.844-5.9-6.607-9.526-8.758-10.602l3.226 6.453z"/><style id="style853" type="text/css">.st0{fill:#fff}</style></svg>
